data/Blueish.CUBE
#Created by Online LUT generator
TITLE "Foo"
#LUT size
LUT_3D_SIZE 5
#data domain
#LUT data points
DOMAIN_MIN 0.000000 0.000000 0.000000
DOMAIN_MAX 0.903226 0.903226 0.903226
0.02500 0.00000 0.05000
0.24375 0.00000 0.05000
0.46250 0.00000 0.05000
0.68125 0.00000 0.05000
0.90000 0.00000 0.05000
0.02500 0.18812 0.05000
0.24375 0.18812 0.05000
0.46250 0.18812 0.05000
0.68125 0.18812 0.05000
0.90000 0.18812 0.05000
0.02500 0.37625 0.05000
0.24375 0.37625 0.05000
0.46250 0.37625 0.05000
0.68125 0.37625 0.05000
0.90000 0.37625 0.05000
0.02500 0.56437 0.05000
0.24375 0.56437 0.05000
0.46250 0.56437 0.05000
0.68125 0.56437 0.05000
0.90000 0.56437 0.05000
0.02500 0.75250 0.05000
0.24375 0.75250 0.05000
0.46250 0.75250 0.05000
0.68125 0.75250 0.05000
0.90000 0.75250 0.05000
0.02500 0.00000 0.48750
0.24375 0.00000 0.48750
0.46250 0.00000 0.48750
0.68125 0.00000 0.48750
0.90000 0.00000 0.48750
0.02500 0.18812 0.48750
0.24375 0.18812 0.48750
0.46250 0.18812 0.48750
0.68125 0.18812 0.48750
0.90000 0.18812 0.48750
0.02500 0.37625 0.48750
0.24375 0.37625 0.48750
0.46250 0.37625 0.48750
0.68125 0.37625 0.48750
0.90000 0.37625 0.48750
0.02500 0.56437 0.48750
0.24375 0.56437 0.48750
0.46250 0.56437 0.48750
0.68125 0.56437 0.48750
0.90000 0.56437 0.48750
0.02500 0.75250 0.48750
0.24375 0.75250 0.48750
0.46250 0.75250 0.48750
0.68125 0.75250 0.48750
0.90000 0.75250 0.48750
0.02500 0.00000 0.92500
0.24375 0.00000 0.92500
0.46250 0.00000 0.92500
0.68125 0.00000 0.92500
0.90000 0.00000 0.92500
0.02500 0.18812 0.92500
0.24375 0.18812 0.92500
0.46250 0.18812 0.92500
0.68125 0.18812 0.92500
0.90000 0.18812 0.92500
0.02500 0.37625 0.92500
0.24375 0.37625 0.92500
0.46250 0.37625 0.92500
0.68125 0.37625 0.92500
0.90000 0.37625 0.92500
0.02500 0.56437 0.92500
0.24375 0.56437 0.92500
0.46250 0.56437 0.92500
0.68125 0.56437 0.92500
0.90000 0.56437 0.92500
0.02500 0.75250 0.92500
0.24375 0.75250 0.92500
0.46250 0.75250 0.92500
0.68125 0.75250 0.92500
0.90000 0.75250 0.92500
0.02500 0.00000 1.00000
0.24375 0.00000 1.00000
0.46250 0.00000 1.00000
0.68125 0.00000 1.00000
0.90000 0.00000 1.00000
0.02500 0.18812 1.00000
0.24375 0.18812 1.00000
0.46250 0.18812 1.00000
0.68125 0.18812 1.00000
0.90000 0.18812 1.00000
0.02500 0.37625 1.00000
0.24375 0.37625 1.00000
0.46250 0.37625 1.00000
0.68125 0.37625 1.00000
0.90000 0.37625 1.00000
0.02500 0.56437 1.00000
0.24375 0.56437 1.00000
0.46250 0.56437 1.00000
0.68125 0.56437 1.00000
0.90000 0.56437 1.00000
0.02500 0.75250 1.00000
0.24375 0.75250 1.00000
0.46250 0.75250 1.00000
0.68125 0.75250 1.00000
0.90000 0.75250 1.00000
0.02500 0.00000 1.00000
0.24375 0.00000 1.00000
0.46250 0.00000 1.00000
0.68125 0.00000 1.00000
0.90000 0.00000 1.00000
0.02500 0.18812 1.00000
0.24375 0.18812 1.00000
0.46250 0.18812 1.00000
0.68125 0.18812 1.00000
0.90000 0.18812 1.00000
0.02500 0.37625 1.00000
0.24375 0.37625 1.00000
0.46250 0.37625 1.00000
0.68125 0.37625 1.00000
0.90000 0.37625 1.00000
0.02500 0.56437 1.00000
0.24375 0.56437 1.00000
0.46250 0.56437 1.00000
0.68125 0.56437 1.00000
0.90000 0.56437 1.00000
0.02500 0.75250 1.00000
0.24375 0.75250 1.00000
0.46250 0.75250 1.00000
0.68125 0.75250 1.00000
0.90000 0.75250 1.00000
