data/Blueish.CUBE
#Created by Online LUT generator
TITLE "Foo"
#LUT size
LUT_3D_SIZE 8
#data domain
#LUT data points
DOMAIN_MIN 0.000000 0.000000 0.000000
DOMAIN_MAX 0.903226 0.903226 0.903226
0.02500 0.00000 0.05000
0.15000 0.00000 0.05000
0.27500 0.00000 0.05000
0.40000 0.00000 0.05000
0.52500 0.00000 0.05000
0.65000 0.00000 0.05000
0.77500 0.00000 0.05000
0.90000 0.00000 0.05000
0.02500 0.10750 0.05000
0.15000 0.10750 0.05000
0.27500 0.10750 0.05000
0.40000 0.10750 0.05000
0.52500 0.10750 0.05000
0.65000 0.10750 0.05000
0.77500 0.10750 0.05000
0.90000 0.10750 0.05000
0.02500 0.21500 0.05000
0.15000 0.21500 0.05000
0.27500 0.21500 0.05000
0.40000 0.21500 0.05000
0.52500 0.21500 0.05000
0.65000 0.21500 0.05000
0.77500 0.21500 0.05000
0.90000 0.21500 0.05000
0.02500 0.32250 0.05000
0.15000 0.32250 0.05000
0.27500 0.32250 0.05000
0.40000 0.32250 0.05000
0.52500 0.32250 0.05000
0.65000 0.32250 0.05000
0.77500 0.32250 0.05000
0.90000 0.32250 0.05000
0.02500 0.43000 0.05000
0.15000 0.43000 0.05000
0.27500 0.43000 0.05000
0.40000 0.43000 0.05000
0.52500 0.43000 0.05000
0.65000 0.43000 0.05000
0.77500 0.43000 0.05000
0.90000 0.43000 0.05000
0.02500 0.53750 0.05000
0.15000 0.53750 0.05000
0.27500 0.53750 0.05000
0.40000 0.53750 0.05000
0.52500 0.53750 0.05000
0.65000 0.53750 0.05000
0.77500 0.53750 0.05000
0.90000 0.53750 0.05000
0.02500 0.64500 0.05000
0.15000 0.64500 0.05000
0.27500 0.64500 0.05000
0.40000 0.64500 0.05000
0.52500 0.64500 0.05000
0.65000 0.64500 0.05000
0.77500 0.64500 0.05000
0.90000 0.64500 0.05000
0.02500 0.75250 0.05000
0.15000 0.75250 0.05000
0.27500 0.75250 0.05000
0.40000 0.75250 0.05000
0.52500 0.75250 0.05000
0.65000 0.75250 0.05000
0.77500 0.75250 0.05000
0.90000 0.75250 0.05000
0.02500 0.00000 0.30000
0.15000 0.00000 0.30000
0.27500 0.00000 0.30000
0.40000 0.00000 0.30000
0.52500 0.00000 0.30000
0.65000 0.00000 0.30000
0.77500 0.00000 0.30000
0.90000 0.00000 0.30000
0.02500 0.10750 0.30000
0.15000 0.10750 0.30000
0.27500 0.10750 0.30000
0.40000 0.10750 0.30000
0.52500 0.10750 0.30000
0.65000 0.10750 0.30000
0.77500 0.10750 0.30000
0.90000 0.10750 0.30000
0.02500 0.21500 0.30000
0.15000 0.21500 0.30000
0.27500 0.21500 0.30000
0.40000 0.21500 0.30000
0.52500 0.21500 0.30000
0.65000 0.21500 0.30000
0.77500 0.21500 0.30000
0.90000 0.21500 0.30000
0.02500 0.32250 0.30000
0.15000 0.32250 0.30000
0.27500 0.32250 0.30000
0.40000 0.32250 0.30000
0.52500 0.32250 0.30000
0.65000 0.32250 0.30000
0.77500 0.32250 0.30000
0.90000 0.32250 0.30000
0.02500 0.43000 0.30000
0.15000 0.43000 0.30000
0.27500 0.43000 0.30000
0.40000 0.43000 0.30000
0.52500 0.43000 0.30000
0.65000 0.43000 0.30000
0.77500 0.43000 0.30000
0.90000 0.43000 0.30000
0.02500 0.53750 0.30000
0.15000 0.53750 0.30000
0.27500 0.53750 0.30000
0.40000 0.53750 0.30000
0.52500 0.53750 0.30000
0.65000 0.53750 0.30000
0.77500 0.53750 0.30000
0.90000 0.53750 0.30000
0.02500 0.64500 0.30000
0.15000 0.64500 0.30000
0.27500 0.64500 0.30000
0.40000 0.64500 0.30000
0.52500 0.64500 0.30000
0.65000 0.64500 0.30000
0.77500 0.64500 0.30000
0.90000 0.64500 0.30000
0.02500 0.75250 0.30000
0.15000 0.75250 0.30000
0.27500 0.75250 0.30000
0.40000 0.75250 0.30000
0.52500 0.75250 0.30000
0.65000 0.75250 0.30000
0.77500 0.75250 0.30000
0.90000 0.75250 0.30000
0.02500 0.00000 0.55000
0.15000 0.00000 0.55000
0.27500 0.00000 0.55000
0.40000 0.00000 0.55000
0.52500 0.00000 0.55000
0.65000 0.00000 0.55000
0.77500 0.00000 0.55000
0.90000 0.00000 0.55000
0.02500 0.10750 0.55000
0.15000 0.10750 0.55000
0.27500 0.10750 0.55000
0.40000 0.10750 0.55000
0.52500 0.10750 0.55000
0.65000 0.10750 0.55000
0.77500 0.10750 0.55000
0.90000 0.10750 0.55000
0.02500 0.21500 0.55000
0.15000 0.21500 0.55000
0.27500 0.21500 0.55000
0.40000 0.21500 0.55000
0.52500 0.21500 0.55000
0.65000 0.21500 0.55000
0.77500 0.21500 0.55000
0.90000 0.21500 0.55000
0.02500 0.32250 0.55000
0.15000 0.32250 0.55000
0.27500 0.32250 0.55000
0.40000 0.32250 0.55000
0.52500 0.32250 0.55000
0.65000 0.32250 0.55000
0.77500 0.32250 0.55000
0.90000 0.32250 0.55000
0.02500 0.43000 0.55000
0.15000 0.43000 0.55000
0.27500 0.43000 0.55000
0.40000 0.43000 0.55000
0.52500 0.43000 0.55000
0.65000 0.43000 0.55000
0.77500 0.43000 0.55000
0.90000 0.43000 0.55000
0.02500 0.53750 0.55000
0.15000 0.53750 0.55000
0.27500 0.53750 0.55000
0.40000 0.53750 0.55000
0.52500 0.53750 0.55000
0.65000 0.53750 0.55000
0.77500 0.53750 0.55000
0.90000 0.53750 0.55000
0.02500 0.64500 0.55000
0.15000 0.64500 0.55000
0.27500 0.64500 0.55000
0.40000 0.64500 0.55000
0.52500 0.64500 0.55000
0.65000 0.64500 0.55000
0.77500 0.64500 0.55000
0.90000 0.64500 0.55000
0.02500 0.75250 0.55000
0.15000 0.75250 0.55000
0.27500 0.75250 0.55000
0.40000 0.75250 0.55000
0.52500 0.75250 0.55000
0.65000 0.75250 0.55000
0.77500 0.75250 0.55000
0.90000 0.75250 0.55000
0.02500 0.00000 0.80000
0.15000 0.00000 0.80000
0.27500 0.00000 0.80000
0.40000 0.00000 0.80000
0.52500 0.00000 0.80000
0.65000 0.00000 0.80000
0.77500 0.00000 0.80000
0.90000 0.00000 0.80000
0.02500 0.10750 0.80000
0.15000 0.10750 0.80000
0.27500 0.10750 0.80000
0.40000 0.10750 0.80000
0.52500 0.10750 0.80000
0.65000 0.10750 0.80000
0.77500 0.10750 0.80000
0.90000 0.10750 0.80000
0.02500 0.21500 0.80000
0.15000 0.21500 0.80000
0.27500 0.21500 0.80000
0.40000 0.21500 0.80000
0.52500 0.21500 0.80000
0.65000 0.21500 0.80000
0.77500 0.21500 0.80000
0.90000 0.21500 0.80000
0.02500 0.32250 0.80000
0.15000 0.32250 0.80000
0.27500 0.32250 0.80000
0.40000 0.32250 0.80000
0.52500 0.32250 0.80000
0.65000 0.32250 0.80000
0.77500 0.32250 0.80000
0.90000 0.32250 0.80000
0.02500 0.43000 0.80000
0.15000 0.43000 0.80000
0.27500 0.43000 0.80000
0.40000 0.43000 0.80000
0.52500 0.43000 0.80000
0.65000 0.43000 0.80000
0.77500 0.43000 0.80000
0.90000 0.43000 0.80000
0.02500 0.53750 0.80000
0.15000 0.53750 0.80000
0.27500 0.53750 0.80000
0.40000 0.53750 0.80000
0.52500 0.53750 0.80000
0.65000 0.53750 0.80000
0.77500 0.53750 0.80000
0.90000 0.53750 0.80000
0.02500 0.64500 0.80000
0.15000 0.64500 0.80000
0.27500 0.64500 0.80000
0.40000 0.64500 0.80000
0.52500 0.64500 0.80000
0.65000 0.64500 0.80000
0.77500 0.64500 0.80000
0.90000 0.64500 0.80000
0.02500 0.75250 0.80000
0.15000 0.75250 0.80000
0.27500 0.75250 0.80000
0.40000 0.75250 0.80000
0.52500 0.75250 0.80000
0.65000 0.75250 0.80000
0.77500 0.75250 0.80000
0.90000 0.75250 0.80000
0.02500 0.00000 1.00000
0.15000 0.00000 1.00000
0.27500 0.00000 1.00000
0.40000 0.00000 1.00000
0.52500 0.00000 1.00000
0.65000 0.00000 1.00000
0.77500 0.00000 1.00000
0.90000 0.00000 1.00000
0.02500 0.10750 1.00000
0.15000 0.10750 1.00000
0.27500 0.10750 1.00000
0.40000 0.10750 1.00000
0.52500 0.10750 1.00000
0.65000 0.10750 1.00000
0.77500 0.10750 1.00000
0.90000 0.10750 1.00000
0.02500 0.21500 1.00000
0.15000 0.21500 1.00000
0.27500 0.21500 1.00000
0.40000 0.21500 1.00000
0.52500 0.21500 1.00000
0.65000 0.21500 1.00000
0.77500 0.21500 1.00000
0.90000 0.21500 1.00000
0.02500 0.32250 1.00000
0.15000 0.32250 1.00000
0.27500 0.32250 1.00000
0.40000 0.32250 1.00000
0.52500 0.32250 1.00000
0.65000 0.32250 1.00000
0.77500 0.32250 1.00000
0.90000 0.32250 1.00000
0.02500 0.43000 1.00000
0.15000 0.43000 1.00000
0.27500 0.43000 1.00000
0.40000 0.43000 1.00000
0.52500 0.43000 1.00000
0.65000 0.43000 1.00000
0.77500 0.43000 1.00000
0.90000 0.43000 1.00000
0.02500 0.53750 1.00000
0.15000 0.53750 1.00000
0.27500 0.53750 1.00000
0.40000 0.53750 1.00000
0.52500 0.53750 1.00000
0.65000 0.53750 1.00000
0.77500 0.53750 1.00000
0.90000 0.53750 1.00000
0.02500 0.64500 1.00000
0.15000 0.64500 1.00000
0.27500 0.64500 1.00000
0.40000 0.64500 1.00000
0.52500 0.64500 1.00000
0.65000 0.64500 1.00000
0.77500 0.64500 1.00000
0.90000 0.64500 1.00000
0.02500 0.75250 1.00000
0.15000 0.75250 1.00000
0.27500 0.75250 1.00000
0.40000 0.75250 1.00000
0.52500 0.75250 1.00000
0.65000 0.75250 1.00000
0.77500 0.75250 1.00000
0.90000 0.75250 1.00000
0.02500 0.00000 1.00000
0.15000 0.00000 1.00000
0.27500 0.00000 1.00000
0.40000 0.00000 1.00000
0.52500 0.00000 1.00000
0.65000 0.00000 1.00000
0.77500 0.00000 1.00000
0.90000 0.00000 1.00000
0.02500 0.10750 1.00000
0.15000 0.10750 1.00000
0.27500 0.10750 1.00000
0.40000 0.10750 1.00000
0.52500 0.10750 1.00000
0.65000 0.10750 1.00000
0.77500 0.10750 1.00000
0.90000 0.10750 1.00000
0.02500 0.21500 1.00000
0.15000 0.21500 1.00000
0.27500 0.21500 1.00000
0.40000 0.21500 1.00000
0.52500 0.21500 1.00000
0.65000 0.21500 1.00000
0.77500 0.21500 1.00000
0.90000 0.21500 1.00000
0.02500 0.32250 1.00000
0.15000 0.32250 1.00000
0.27500 0.32250 1.00000
0.40000 0.32250 1.00000
0.52500 0.32250 1.00000
0.65000 0.32250 1.00000
0.77500 0.32250 1.00000
0.90000 0.32250 1.00000
0.02500 0.43000 1.00000
0.15000 0.43000 1.00000
0.27500 0.43000 1.00000
0.40000 0.43000 1.00000
0.52500 0.43000 1.00000
0.65000 0.43000 1.00000
0.77500 0.43000 1.00000
0.90000 0.43000 1.00000
0.02500 0.53750 1.00000
0.15000 0.53750 1.00000
0.27500 0.53750 1.00000
0.40000 0.53750 1.00000
0.52500 0.53750 1.00000
0.65000 0.53750 1.00000
0.77500 0.53750 1.00000
0.90000 0.53750 1.00000
0.02500 0.64500 1.00000
0.15000 0.64500 1.00000
0.27500 0.64500 1.00000
0.40000 0.64500 1.00000
0.52500 0.64500 1.00000
0.65000 0.64500 1.00000
0.77500 0.64500 1.00000
0.90000 0.64500 1.00000
0.02500 0.75250 1.00000
0.15000 0.75250 1.00000
0.27500 0.75250 1.00000
0.40000 0.75250 1.00000
0.52500 0.75250 1.00000
0.65000 0.75250 1.00000
0.77500 0.75250 1.00000
0.90000 0.75250 1.00000
0.02500 0.00000 1.00000
0.15000 0.00000 1.00000
0.27500 0.00000 1.00000
0.40000 0.00000 1.00000
0.52500 0.00000 1.00000
0.65000 0.00000 1.00000
0.77500 0.00000 1.00000
0.90000 0.00000 1.00000
0.02500 0.10750 1.00000
0.15000 0.10750 1.00000
0.27500 0.10750 1.00000
0.40000 0.10750 1.00000
0.52500 0.10750 1.00000
0.65000 0.10750 1.00000
0.77500 0.10750 1.00000
0.90000 0.10750 1.00000
0.02500 0.21500 1.00000
0.15000 0.21500 1.00000
0.27500 0.21500 1.00000
0.40000 0.21500 1.00000
0.52500 0.21500 1.00000
0.65000 0.21500 1.00000
0.77500 0.21500 1.00000
0.90000 0.21500 1.00000
0.02500 0.32250 1.00000
0.15000 0.32250 1.00000
0.27500 0.32250 1.00000
0.40000 0.32250 1.00000
0.52500 0.32250 1.00000
0.65000 0.32250 1.00000
0.77500 0.32250 1.00000
0.90000 0.32250 1.00000
0.02500 0.43000 1.00000
0.15000 0.43000 1.00000
0.27500 0.43000 1.00000
0.40000 0.43000 1.00000
0.52500 0.43000 1.00000
0.65000 0.43000 1.00000
0.77500 0.43000 1.00000
0.90000 0.43000 1.00000
0.02500 0.53750 1.00000
0.15000 0.53750 1.00000
0.27500 0.53750 1.00000
0.40000 0.53750 1.00000
0.52500 0.53750 1.00000
0.65000 0.53750 1.00000
0.77500 0.53750 1.00000
0.90000 0.53750 1.00000
0.02500 0.64500 1.00000
0.15000 0.64500 1.00000
0.27500 0.64500 1.00000
0.40000 0.64500 1.00000
0.52500 0.64500 1.00000
0.65000 0.64500 1.00000
0.77500 0.64500 1.00000
0.90000 0.64500 1.00000
0.02500 0.75250 1.00000
0.15000 0.75250 1.00000
0.27500 0.75250 1.00000
0.40000 0.75250 1.00000
0.52500 0.75250 1.00000
0.65000 0.75250 1.00000
0.77500 0.75250 1.00000
0.90000 0.75250 1.00000
0.02500 0.00000 1.00000
0.15000 0.00000 1.00000
0.27500 0.00000 1.00000
0.40000 0.00000 1.00000
0.52500 0.00000 1.00000
0.65000 0.00000 1.00000
0.77500 0.00000 1.00000
0.90000 0.00000 1.00000
0.02500 0.10750 1.00000
0.15000 0.10750 1.00000
0.27500 0.10750 1.00000
0.40000 0.10750 1.00000
0.52500 0.10750 1.00000
0.65000 0.10750 1.00000
0.77500 0.10750 1.00000
0.90000 0.10750 1.00000
0.02500 0.21500 1.00000
0.15000 0.21500 1.00000
0.27500 0.21500 1.00000
0.40000 0.21500 1.00000
0.52500 0.21500 1.00000
0.65000 0.21500 1.00000
0.77500 0.21500 1.00000
0.90000 0.21500 1.00000
0.02500 0.32250 1.00000
0.15000 0.32250 1.00000
0.27500 0.32250 1.00000
0.40000 0.32250 1.00000
0.52500 0.32250 1.00000
0.65000 0.32250 1.00000
0.77500 0.32250 1.00000
0.90000 0.32250 1.00000
0.02500 0.43000 1.00000
0.15000 0.43000 1.00000
0.27500 0.43000 1.00000
0.40000 0.43000 1.00000
0.52500 0.43000 1.00000
0.65000 0.43000 1.00000
0.77500 0.43000 1.00000
0.90000 0.43000 1.00000
0.02500 0.53750 1.00000
0.15000 0.53750 1.00000
0.27500 0.53750 1.00000
0.40000 0.53750 1.00000
0.52500 0.53750 1.00000
0.65000 0.53750 1.00000
0.77500 0.53750 1.00000
0.90000 0.53750 1.00000
0.02500 0.64500 1.00000
0.15000 0.64500 1.00000
0.27500 0.64500 1.00000
0.40000 0.64500 1.00000
0.52500 0.64500 1.00000
0.65000 0.64500 1.00000
0.77500 0.64500 1.00000
0.90000 0.64500 1.00000
0.02500 0.75250 1.00000
0.15000 0.75250 1.00000
0.27500 0.75250 1.00000
0.40000 0.75250 1.00000
0.52500 0.75250 1.00000
0.65000 0.75250 1.00000
0.77500 0.75250 1.00000
0.90000 0.75250 1.00000
