data/Blueish.CUBE
#Created by Online LUT generator
TITLE "Foo"
#LUT size
LUT_3D_SIZE 32
#data domain
DOMAIN_MIN 0 0 0
DOMAIN_MAX 1 1 1
#LUT data points
0.02500 0.00000 0.05000
0.05625 0.00000 0.05000
0.08750 0.00000 0.05000
0.11875 0.00000 0.05000
0.15000 0.00000 0.05000
0.18125 0.00000 0.05000
0.21250 0.00000 0.05000
0.24375 0.00000 0.05000
0.27500 0.00000 0.05000
0.30625 0.00000 0.05000
0.33750 0.00000 0.05000
0.36875 0.00000 0.05000
0.40000 0.00000 0.05000
0.43125 0.00000 0.05000
0.46250 0.00000 0.05000
0.49375 0.00000 0.05000
0.52500 0.00000 0.05000
0.55625 0.00000 0.05000
0.58750 0.00000 0.05000
0.61875 0.00000 0.05000
0.65000 0.00000 0.05000
0.68125 0.00000 0.05000
0.71250 0.00000 0.05000
0.74375 0.00000 0.05000
0.77500 0.00000 0.05000
0.80625 0.00000 0.05000
0.83750 0.00000 0.05000
0.86875 0.00000 0.05000
0.90000 0.00000 0.05000
0.93125 0.00000 0.05000
0.96250 0.00000 0.05000
0.99375 0.00000 0.05000
0.02500 0.02688 0.05000
0.05625 0.02688 0.05000
0.08750 0.02688 0.05000
0.11875 0.02688 0.05000
0.15000 0.02688 0.05000
0.18125 0.02688 0.05000
0.21250 0.02688 0.05000
0.24375 0.02688 0.05000
0.27500 0.02688 0.05000
0.30625 0.02688 0.05000
0.33750 0.02688 0.05000
0.36875 0.02688 0.05000
0.40000 0.02688 0.05000
0.43125 0.02688 0.05000
0.46250 0.02688 0.05000
0.49375 0.02688 0.05000
0.52500 0.02688 0.05000
0.55625 0.02688 0.05000
0.58750 0.02688 0.05000
0.61875 0.02688 0.05000
0.65000 0.02688 0.05000
0.68125 0.02688 0.05000
0.71250 0.02688 0.05000
0.74375 0.02688 0.05000
0.77500 0.02688 0.05000
0.80625 0.02688 0.05000
0.83750 0.02688 0.05000
0.86875 0.02688 0.05000
0.90000 0.02688 0.05000
0.93125 0.02688 0.05000
0.96250 0.02688 0.05000
0.99375 0.02688 0.05000
0.02500 0.05375 0.05000
0.05625 0.05375 0.05000
0.08750 0.05375 0.05000
0.11875 0.05375 0.05000
0.15000 0.05375 0.05000
0.18125 0.05375 0.05000
0.21250 0.05375 0.05000
0.24375 0.05375 0.05000
0.27500 0.05375 0.05000
0.30625 0.05375 0.05000
0.33750 0.05375 0.05000
0.36875 0.05375 0.05000
0.40000 0.05375 0.05000
0.43125 0.05375 0.05000
0.46250 0.05375 0.05000
0.49375 0.05375 0.05000
0.52500 0.05375 0.05000
0.55625 0.05375 0.05000
0.58750 0.05375 0.05000
0.61875 0.05375 0.05000
0.65000 0.05375 0.05000
0.68125 0.05375 0.05000
0.71250 0.05375 0.05000
0.74375 0.05375 0.05000
0.77500 0.05375 0.05000
0.80625 0.05375 0.05000
0.83750 0.05375 0.05000
0.86875 0.05375 0.05000
0.90000 0.05375 0.05000
0.93125 0.05375 0.05000
0.96250 0.05375 0.05000
0.99375 0.05375 0.05000
0.02500 0.08062 0.05000
0.05625 0.08062 0.05000
0.08750 0.08062 0.05000
0.11875 0.08062 0.05000
0.15000 0.08062 0.05000
0.18125 0.08062 0.05000
0.21250 0.08062 0.05000
0.24375 0.08062 0.05000
0.27500 0.08062 0.05000
0.30625 0.08062 0.05000
0.33750 0.08062 0.05000
0.36875 0.08062 0.05000
0.40000 0.08062 0.05000
0.43125 0.08062 0.05000
0.46250 0.08062 0.05000
0.49375 0.08062 0.05000
0.52500 0.08062 0.05000
0.55625 0.08062 0.05000
0.58750 0.08062 0.05000
0.61875 0.08062 0.05000
0.65000 0.08062 0.05000
0.68125 0.08062 0.05000
0.71250 0.08062 0.05000
0.74375 0.08062 0.05000
0.77500 0.08062 0.05000
0.80625 0.08062 0.05000
0.83750 0.08062 0.05000
0.86875 0.08062 0.05000
0.90000 0.08062 0.05000
0.93125 0.08062 0.05000
0.96250 0.08062 0.05000
0.99375 0.08062 0.05000
0.02500 0.10750 0.05000
0.05625 0.10750 0.05000
0.08750 0.10750 0.05000
0.11875 0.10750 0.05000
0.15000 0.10750 0.05000
0.18125 0.10750 0.05000
0.21250 0.10750 0.05000
0.24375 0.10750 0.05000
0.27500 0.10750 0.05000
0.30625 0.10750 0.05000
0.33750 0.10750 0.05000
0.36875 0.10750 0.05000
0.40000 0.10750 0.05000
0.43125 0.10750 0.05000
0.46250 0.10750 0.05000
0.49375 0.10750 0.05000
0.52500 0.10750 0.05000
0.55625 0.10750 0.05000
0.58750 0.10750 0.05000
0.61875 0.10750 0.05000
0.65000 0.10750 0.05000
0.68125 0.10750 0.05000
0.71250 0.10750 0.05000
0.74375 0.10750 0.05000
0.77500 0.10750 0.05000
0.80625 0.10750 0.05000
0.83750 0.10750 0.05000
0.86875 0.10750 0.05000
0.90000 0.10750 0.05000
0.93125 0.10750 0.05000
0.96250 0.10750 0.05000
0.99375 0.10750 0.05000
0.02500 0.13438 0.05000
0.05625 0.13438 0.05000
0.08750 0.13438 0.05000
0.11875 0.13438 0.05000
0.15000 0.13438 0.05000
0.18125 0.13438 0.05000
0.21250 0.13438 0.05000
0.24375 0.13438 0.05000
0.27500 0.13438 0.05000
0.30625 0.13438 0.05000
0.33750 0.13438 0.05000
0.36875 0.13438 0.05000
0.40000 0.13438 0.05000
0.43125 0.13438 0.05000
0.46250 0.13438 0.05000
0.49375 0.13438 0.05000
0.52500 0.13438 0.05000
0.55625 0.13438 0.05000
0.58750 0.13438 0.05000
0.61875 0.13438 0.05000
0.65000 0.13438 0.05000
0.68125 0.13438 0.05000
0.71250 0.13438 0.05000
0.74375 0.13438 0.05000
0.77500 0.13438 0.05000
0.80625 0.13438 0.05000
0.83750 0.13438 0.05000
0.86875 0.13438 0.05000
0.90000 0.13438 0.05000
0.93125 0.13438 0.05000
0.96250 0.13438 0.05000
0.99375 0.13438 0.05000
0.02500 0.16125 0.05000
0.05625 0.16125 0.05000
0.08750 0.16125 0.05000
0.11875 0.16125 0.05000
0.15000 0.16125 0.05000
0.18125 0.16125 0.05000
0.21250 0.16125 0.05000
0.24375 0.16125 0.05000
0.27500 0.16125 0.05000
0.30625 0.16125 0.05000
0.33750 0.16125 0.05000
0.36875 0.16125 0.05000
0.40000 0.16125 0.05000
0.43125 0.16125 0.05000
0.46250 0.16125 0.05000
0.49375 0.16125 0.05000
0.52500 0.16125 0.05000
0.55625 0.16125 0.05000
0.58750 0.16125 0.05000
0.61875 0.16125 0.05000
0.65000 0.16125 0.05000
0.68125 0.16125 0.05000
0.71250 0.16125 0.05000
0.74375 0.16125 0.05000
0.77500 0.16125 0.05000
0.80625 0.16125 0.05000
0.83750 0.16125 0.05000
0.86875 0.16125 0.05000
0.90000 0.16125 0.05000
0.93125 0.16125 0.05000
0.96250 0.16125 0.05000
0.99375 0.16125 0.05000
0.02500 0.18812 0.05000
0.05625 0.18812 0.05000
0.08750 0.18812 0.05000
0.11875 0.18812 0.05000
0.15000 0.18812 0.05000
0.18125 0.18812 0.05000
0.21250 0.18812 0.05000
0.24375 0.18812 0.05000
0.27500 0.18812 0.05000
0.30625 0.18812 0.05000
0.33750 0.18812 0.05000
0.36875 0.18812 0.05000
0.40000 0.18812 0.05000
0.43125 0.18812 0.05000
0.46250 0.18812 0.05000
0.49375 0.18812 0.05000
0.52500 0.18812 0.05000
0.55625 0.18812 0.05000
0.58750 0.18812 0.05000
0.61875 0.18812 0.05000
0.65000 0.18812 0.05000
0.68125 0.18812 0.05000
0.71250 0.18812 0.05000
0.74375 0.18812 0.05000
0.77500 0.18812 0.05000
0.80625 0.18812 0.05000
0.83750 0.18812 0.05000
0.86875 0.18812 0.05000
0.90000 0.18812 0.05000
0.93125 0.18812 0.05000
0.96250 0.18812 0.05000
0.99375 0.18812 0.05000
0.02500 0.21500 0.05000
0.05625 0.21500 0.05000
0.08750 0.21500 0.05000
0.11875 0.21500 0.05000
0.15000 0.21500 0.05000
0.18125 0.21500 0.05000
0.21250 0.21500 0.05000
0.24375 0.21500 0.05000
0.27500 0.21500 0.05000
0.30625 0.21500 0.05000
0.33750 0.21500 0.05000
0.36875 0.21500 0.05000
0.40000 0.21500 0.05000
0.43125 0.21500 0.05000
0.46250 0.21500 0.05000
0.49375 0.21500 0.05000
0.52500 0.21500 0.05000
0.55625 0.21500 0.05000
0.58750 0.21500 0.05000
0.61875 0.21500 0.05000
0.65000 0.21500 0.05000
0.68125 0.21500 0.05000
0.71250 0.21500 0.05000
0.74375 0.21500 0.05000
0.77500 0.21500 0.05000
0.80625 0.21500 0.05000
0.83750 0.21500 0.05000
0.86875 0.21500 0.05000
0.90000 0.21500 0.05000
0.93125 0.21500 0.05000
0.96250 0.21500 0.05000
0.99375 0.21500 0.05000
0.02500 0.24187 0.05000
0.05625 0.24187 0.05000
0.08750 0.24187 0.05000
0.11875 0.24187 0.05000
0.15000 0.24187 0.05000
0.18125 0.24187 0.05000
0.21250 0.24187 0.05000
0.24375 0.24187 0.05000
0.27500 0.24187 0.05000
0.30625 0.24187 0.05000
0.33750 0.24187 0.05000
0.36875 0.24187 0.05000
0.40000 0.24187 0.05000
0.43125 0.24187 0.05000
0.46250 0.24187 0.05000
0.49375 0.24187 0.05000
0.52500 0.24187 0.05000
0.55625 0.24187 0.05000
0.58750 0.24187 0.05000
0.61875 0.24187 0.05000
0.65000 0.24187 0.05000
0.68125 0.24187 0.05000
0.71250 0.24187 0.05000
0.74375 0.24187 0.05000
0.77500 0.24187 0.05000
0.80625 0.24187 0.05000
0.83750 0.24187 0.05000
0.86875 0.24187 0.05000
0.90000 0.24187 0.05000
0.93125 0.24187 0.05000
0.96250 0.24187 0.05000
0.99375 0.24187 0.05000
0.02500 0.26875 0.05000
0.05625 0.26875 0.05000
0.08750 0.26875 0.05000
0.11875 0.26875 0.05000
0.15000 0.26875 0.05000
0.18125 0.26875 0.05000
0.21250 0.26875 0.05000
0.24375 0.26875 0.05000
0.27500 0.26875 0.05000
0.30625 0.26875 0.05000
0.33750 0.26875 0.05000
0.36875 0.26875 0.05000
0.40000 0.26875 0.05000
0.43125 0.26875 0.05000
0.46250 0.26875 0.05000
0.49375 0.26875 0.05000
0.52500 0.26875 0.05000
0.55625 0.26875 0.05000
0.58750 0.26875 0.05000
0.61875 0.26875 0.05000
0.65000 0.26875 0.05000
0.68125 0.26875 0.05000
0.71250 0.26875 0.05000
0.74375 0.26875 0.05000
0.77500 0.26875 0.05000
0.80625 0.26875 0.05000
0.83750 0.26875 0.05000
0.86875 0.26875 0.05000
0.90000 0.26875 0.05000
0.93125 0.26875 0.05000
0.96250 0.26875 0.05000
0.99375 0.26875 0.05000
0.02500 0.29563 0.05000
0.05625 0.29563 0.05000
0.08750 0.29563 0.05000
0.11875 0.29563 0.05000
0.15000 0.29563 0.05000
0.18125 0.29563 0.05000
0.21250 0.29563 0.05000
0.24375 0.29563 0.05000
0.27500 0.29563 0.05000
0.30625 0.29563 0.05000
0.33750 0.29563 0.05000
0.36875 0.29563 0.05000
0.40000 0.29563 0.05000
0.43125 0.29563 0.05000
0.46250 0.29563 0.05000
0.49375 0.29563 0.05000
0.52500 0.29563 0.05000
0.55625 0.29563 0.05000
0.58750 0.29563 0.05000
0.61875 0.29563 0.05000
0.65000 0.29563 0.05000
0.68125 0.29563 0.05000
0.71250 0.29563 0.05000
0.74375 0.29563 0.05000
0.77500 0.29563 0.05000
0.80625 0.29563 0.05000
0.83750 0.29563 0.05000
0.86875 0.29563 0.05000
0.90000 0.29563 0.05000
0.93125 0.29563 0.05000
0.96250 0.29563 0.05000
0.99375 0.29563 0.05000
0.02500 0.32250 0.05000
0.05625 0.32250 0.05000
0.08750 0.32250 0.05000
0.11875 0.32250 0.05000
0.15000 0.32250 0.05000
0.18125 0.32250 0.05000
0.21250 0.32250 0.05000
0.24375 0.32250 0.05000
0.27500 0.32250 0.05000
0.30625 0.32250 0.05000
0.33750 0.32250 0.05000
0.36875 0.32250 0.05000
0.40000 0.32250 0.05000
0.43125 0.32250 0.05000
0.46250 0.32250 0.05000
0.49375 0.32250 0.05000
0.52500 0.32250 0.05000
0.55625 0.32250 0.05000
0.58750 0.32250 0.05000
0.61875 0.32250 0.05000
0.65000 0.32250 0.05000
0.68125 0.32250 0.05000
0.71250 0.32250 0.05000
0.74375 0.32250 0.05000
0.77500 0.32250 0.05000
0.80625 0.32250 0.05000
0.83750 0.32250 0.05000
0.86875 0.32250 0.05000
0.90000 0.32250 0.05000
0.93125 0.32250 0.05000
0.96250 0.32250 0.05000
0.99375 0.32250 0.05000
0.02500 0.34938 0.05000
0.05625 0.34938 0.05000
0.08750 0.34938 0.05000
0.11875 0.34938 0.05000
0.15000 0.34938 0.05000
0.18125 0.34938 0.05000
0.21250 0.34938 0.05000
0.24375 0.34938 0.05000
0.27500 0.34938 0.05000
0.30625 0.34938 0.05000
0.33750 0.34938 0.05000
0.36875 0.34938 0.05000
0.40000 0.34938 0.05000
0.43125 0.34938 0.05000
0.46250 0.34938 0.05000
0.49375 0.34938 0.05000
0.52500 0.34938 0.05000
0.55625 0.34938 0.05000
0.58750 0.34938 0.05000
0.61875 0.34938 0.05000
0.65000 0.34938 0.05000
0.68125 0.34938 0.05000
0.71250 0.34938 0.05000
0.74375 0.34938 0.05000
0.77500 0.34938 0.05000
0.80625 0.34938 0.05000
0.83750 0.34938 0.05000
0.86875 0.34938 0.05000
0.90000 0.34938 0.05000
0.93125 0.34938 0.05000
0.96250 0.34938 0.05000
0.99375 0.34938 0.05000
0.02500 0.37625 0.05000
0.05625 0.37625 0.05000
0.08750 0.37625 0.05000
0.11875 0.37625 0.05000
0.15000 0.37625 0.05000
0.18125 0.37625 0.05000
0.21250 0.37625 0.05000
0.24375 0.37625 0.05000
0.27500 0.37625 0.05000
0.30625 0.37625 0.05000
0.33750 0.37625 0.05000
0.36875 0.37625 0.05000
0.40000 0.37625 0.05000
0.43125 0.37625 0.05000
0.46250 0.37625 0.05000
0.49375 0.37625 0.05000
0.52500 0.37625 0.05000
0.55625 0.37625 0.05000
0.58750 0.37625 0.05000
0.61875 0.37625 0.05000
0.65000 0.37625 0.05000
0.68125 0.37625 0.05000
0.71250 0.37625 0.05000
0.74375 0.37625 0.05000
0.77500 0.37625 0.05000
0.80625 0.37625 0.05000
0.83750 0.37625 0.05000
0.86875 0.37625 0.05000
0.90000 0.37625 0.05000
0.93125 0.37625 0.05000
0.96250 0.37625 0.05000
0.99375 0.37625 0.05000
0.02500 0.40312 0.05000
0.05625 0.40312 0.05000
0.08750 0.40312 0.05000
0.11875 0.40312 0.05000
0.15000 0.40312 0.05000
0.18125 0.40312 0.05000
0.21250 0.40312 0.05000
0.24375 0.40312 0.05000
0.27500 0.40312 0.05000
0.30625 0.40312 0.05000
0.33750 0.40312 0.05000
0.36875 0.40312 0.05000
0.40000 0.40312 0.05000
0.43125 0.40312 0.05000
0.46250 0.40312 0.05000
0.49375 0.40312 0.05000
0.52500 0.40312 0.05000
0.55625 0.40312 0.05000
0.58750 0.40312 0.05000
0.61875 0.40312 0.05000
0.65000 0.40312 0.05000
0.68125 0.40312 0.05000
0.71250 0.40312 0.05000
0.74375 0.40312 0.05000
0.77500 0.40312 0.05000
0.80625 0.40312 0.05000
0.83750 0.40312 0.05000
0.86875 0.40312 0.05000
0.90000 0.40312 0.05000
0.93125 0.40312 0.05000
0.96250 0.40312 0.05000
0.99375 0.40312 0.05000
0.02500 0.43000 0.05000
0.05625 0.43000 0.05000
0.08750 0.43000 0.05000
0.11875 0.43000 0.05000
0.15000 0.43000 0.05000
0.18125 0.43000 0.05000
0.21250 0.43000 0.05000
0.24375 0.43000 0.05000
0.27500 0.43000 0.05000
0.30625 0.43000 0.05000
0.33750 0.43000 0.05000
0.36875 0.43000 0.05000
0.40000 0.43000 0.05000
0.43125 0.43000 0.05000
0.46250 0.43000 0.05000
0.49375 0.43000 0.05000
0.52500 0.43000 0.05000
0.55625 0.43000 0.05000
0.58750 0.43000 0.05000
0.61875 0.43000 0.05000
0.65000 0.43000 0.05000
0.68125 0.43000 0.05000
0.71250 0.43000 0.05000
0.74375 0.43000 0.05000
0.77500 0.43000 0.05000
0.80625 0.43000 0.05000
0.83750 0.43000 0.05000
0.86875 0.43000 0.05000
0.90000 0.43000 0.05000
0.93125 0.43000 0.05000
0.96250 0.43000 0.05000
0.99375 0.43000 0.05000
0.02500 0.45687 0.05000
0.05625 0.45687 0.05000
0.08750 0.45687 0.05000
0.11875 0.45687 0.05000
0.15000 0.45687 0.05000
0.18125 0.45687 0.05000
0.21250 0.45687 0.05000
0.24375 0.45687 0.05000
0.27500 0.45687 0.05000
0.30625 0.45687 0.05000
0.33750 0.45687 0.05000
0.36875 0.45687 0.05000
0.40000 0.45687 0.05000
0.43125 0.45687 0.05000
0.46250 0.45687 0.05000
0.49375 0.45687 0.05000
0.52500 0.45687 0.05000
0.55625 0.45687 0.05000
0.58750 0.45687 0.05000
0.61875 0.45687 0.05000
0.65000 0.45687 0.05000
0.68125 0.45687 0.05000
0.71250 0.45687 0.05000
0.74375 0.45687 0.05000
0.77500 0.45687 0.05000
0.80625 0.45687 0.05000
0.83750 0.45687 0.05000
0.86875 0.45687 0.05000
0.90000 0.45687 0.05000
0.93125 0.45687 0.05000
0.96250 0.45687 0.05000
0.99375 0.45687 0.05000
0.02500 0.48375 0.05000
0.05625 0.48375 0.05000
0.08750 0.48375 0.05000
0.11875 0.48375 0.05000
0.15000 0.48375 0.05000
0.18125 0.48375 0.05000
0.21250 0.48375 0.05000
0.24375 0.48375 0.05000
0.27500 0.48375 0.05000
0.30625 0.48375 0.05000
0.33750 0.48375 0.05000
0.36875 0.48375 0.05000
0.40000 0.48375 0.05000
0.43125 0.48375 0.05000
0.46250 0.48375 0.05000
0.49375 0.48375 0.05000
0.52500 0.48375 0.05000
0.55625 0.48375 0.05000
0.58750 0.48375 0.05000
0.61875 0.48375 0.05000
0.65000 0.48375 0.05000
0.68125 0.48375 0.05000
0.71250 0.48375 0.05000
0.74375 0.48375 0.05000
0.77500 0.48375 0.05000
0.80625 0.48375 0.05000
0.83750 0.48375 0.05000
0.86875 0.48375 0.05000
0.90000 0.48375 0.05000
0.93125 0.48375 0.05000
0.96250 0.48375 0.05000
0.99375 0.48375 0.05000
0.02500 0.51063 0.05000
0.05625 0.51063 0.05000
0.08750 0.51063 0.05000
0.11875 0.51063 0.05000
0.15000 0.51063 0.05000
0.18125 0.51063 0.05000
0.21250 0.51063 0.05000
0.24375 0.51063 0.05000
0.27500 0.51063 0.05000
0.30625 0.51063 0.05000
0.33750 0.51063 0.05000
0.36875 0.51063 0.05000
0.40000 0.51063 0.05000
0.43125 0.51063 0.05000
0.46250 0.51063 0.05000
0.49375 0.51063 0.05000
0.52500 0.51063 0.05000
0.55625 0.51063 0.05000
0.58750 0.51063 0.05000
0.61875 0.51063 0.05000
0.65000 0.51063 0.05000
0.68125 0.51063 0.05000
0.71250 0.51063 0.05000
0.74375 0.51063 0.05000
0.77500 0.51063 0.05000
0.80625 0.51063 0.05000
0.83750 0.51063 0.05000
0.86875 0.51063 0.05000
0.90000 0.51063 0.05000
0.93125 0.51063 0.05000
0.96250 0.51063 0.05000
0.99375 0.51063 0.05000
0.02500 0.53750 0.05000
0.05625 0.53750 0.05000
0.08750 0.53750 0.05000
0.11875 0.53750 0.05000
0.15000 0.53750 0.05000
0.18125 0.53750 0.05000
0.21250 0.53750 0.05000
0.24375 0.53750 0.05000
0.27500 0.53750 0.05000
0.30625 0.53750 0.05000
0.33750 0.53750 0.05000
0.36875 0.53750 0.05000
0.40000 0.53750 0.05000
0.43125 0.53750 0.05000
0.46250 0.53750 0.05000
0.49375 0.53750 0.05000
0.52500 0.53750 0.05000
0.55625 0.53750 0.05000
0.58750 0.53750 0.05000
0.61875 0.53750 0.05000
0.65000 0.53750 0.05000
0.68125 0.53750 0.05000
0.71250 0.53750 0.05000
0.74375 0.53750 0.05000
0.77500 0.53750 0.05000
0.80625 0.53750 0.05000
0.83750 0.53750 0.05000
0.86875 0.53750 0.05000
0.90000 0.53750 0.05000
0.93125 0.53750 0.05000
0.96250 0.53750 0.05000
0.99375 0.53750 0.05000
0.02500 0.56437 0.05000
0.05625 0.56437 0.05000
0.08750 0.56437 0.05000
0.11875 0.56437 0.05000
0.15000 0.56437 0.05000
0.18125 0.56437 0.05000
0.21250 0.56437 0.05000
0.24375 0.56437 0.05000
0.27500 0.56437 0.05000
0.30625 0.56437 0.05000
0.33750 0.56437 0.05000
0.36875 0.56437 0.05000
0.40000 0.56437 0.05000
0.43125 0.56437 0.05000
0.46250 0.56437 0.05000
0.49375 0.56437 0.05000
0.52500 0.56437 0.05000
0.55625 0.56437 0.05000
0.58750 0.56437 0.05000
0.61875 0.56437 0.05000
0.65000 0.56437 0.05000
0.68125 0.56437 0.05000
0.71250 0.56437 0.05000
0.74375 0.56437 0.05000
0.77500 0.56437 0.05000
0.80625 0.56437 0.05000
0.83750 0.56437 0.05000
0.86875 0.56437 0.05000
0.90000 0.56437 0.05000
0.93125 0.56437 0.05000
0.96250 0.56437 0.05000
0.99375 0.56437 0.05000
0.02500 0.59125 0.05000
0.05625 0.59125 0.05000
0.08750 0.59125 0.05000
0.11875 0.59125 0.05000
0.15000 0.59125 0.05000
0.18125 0.59125 0.05000
0.21250 0.59125 0.05000
0.24375 0.59125 0.05000
0.27500 0.59125 0.05000
0.30625 0.59125 0.05000
0.33750 0.59125 0.05000
0.36875 0.59125 0.05000
0.40000 0.59125 0.05000
0.43125 0.59125 0.05000
0.46250 0.59125 0.05000
0.49375 0.59125 0.05000
0.52500 0.59125 0.05000
0.55625 0.59125 0.05000
0.58750 0.59125 0.05000
0.61875 0.59125 0.05000
0.65000 0.59125 0.05000
0.68125 0.59125 0.05000
0.71250 0.59125 0.05000
0.74375 0.59125 0.05000
0.77500 0.59125 0.05000
0.80625 0.59125 0.05000
0.83750 0.59125 0.05000
0.86875 0.59125 0.05000
0.90000 0.59125 0.05000
0.93125 0.59125 0.05000
0.96250 0.59125 0.05000
0.99375 0.59125 0.05000
0.02500 0.61813 0.05000
0.05625 0.61813 0.05000
0.08750 0.61813 0.05000
0.11875 0.61813 0.05000
0.15000 0.61813 0.05000
0.18125 0.61813 0.05000
0.21250 0.61813 0.05000
0.24375 0.61813 0.05000
0.27500 0.61813 0.05000
0.30625 0.61813 0.05000
0.33750 0.61813 0.05000
0.36875 0.61813 0.05000
0.40000 0.61813 0.05000
0.43125 0.61813 0.05000
0.46250 0.61813 0.05000
0.49375 0.61813 0.05000
0.52500 0.61813 0.05000
0.55625 0.61813 0.05000
0.58750 0.61813 0.05000
0.61875 0.61813 0.05000
0.65000 0.61813 0.05000
0.68125 0.61813 0.05000
0.71250 0.61813 0.05000
0.74375 0.61813 0.05000
0.77500 0.61813 0.05000
0.80625 0.61813 0.05000
0.83750 0.61813 0.05000
0.86875 0.61813 0.05000
0.90000 0.61813 0.05000
0.93125 0.61813 0.05000
0.96250 0.61813 0.05000
0.99375 0.61813 0.05000
0.02500 0.64500 0.05000
0.05625 0.64500 0.05000
0.08750 0.64500 0.05000
0.11875 0.64500 0.05000
0.15000 0.64500 0.05000
0.18125 0.64500 0.05000
0.21250 0.64500 0.05000
0.24375 0.64500 0.05000
0.27500 0.64500 0.05000
0.30625 0.64500 0.05000
0.33750 0.64500 0.05000
0.36875 0.64500 0.05000
0.40000 0.64500 0.05000
0.43125 0.64500 0.05000
0.46250 0.64500 0.05000
0.49375 0.64500 0.05000
0.52500 0.64500 0.05000
0.55625 0.64500 0.05000
0.58750 0.64500 0.05000
0.61875 0.64500 0.05000
0.65000 0.64500 0.05000
0.68125 0.64500 0.05000
0.71250 0.64500 0.05000
0.74375 0.64500 0.05000
0.77500 0.64500 0.05000
0.80625 0.64500 0.05000
0.83750 0.64500 0.05000
0.86875 0.64500 0.05000
0.90000 0.64500 0.05000
0.93125 0.64500 0.05000
0.96250 0.64500 0.05000
0.99375 0.64500 0.05000
0.02500 0.67188 0.05000
0.05625 0.67188 0.05000
0.08750 0.67188 0.05000
0.11875 0.67188 0.05000
0.15000 0.67188 0.05000
0.18125 0.67188 0.05000
0.21250 0.67188 0.05000
0.24375 0.67188 0.05000
0.27500 0.67188 0.05000
0.30625 0.67188 0.05000
0.33750 0.67188 0.05000
0.36875 0.67188 0.05000
0.40000 0.67188 0.05000
0.43125 0.67188 0.05000
0.46250 0.67188 0.05000
0.49375 0.67188 0.05000
0.52500 0.67188 0.05000
0.55625 0.67188 0.05000
0.58750 0.67188 0.05000
0.61875 0.67188 0.05000
0.65000 0.67188 0.05000
0.68125 0.67188 0.05000
0.71250 0.67188 0.05000
0.74375 0.67188 0.05000
0.77500 0.67188 0.05000
0.80625 0.67188 0.05000
0.83750 0.67188 0.05000
0.86875 0.67188 0.05000
0.90000 0.67188 0.05000
0.93125 0.67188 0.05000
0.96250 0.67188 0.05000
0.99375 0.67188 0.05000
0.02500 0.69875 0.05000
0.05625 0.69875 0.05000
0.08750 0.69875 0.05000
0.11875 0.69875 0.05000
0.15000 0.69875 0.05000
0.18125 0.69875 0.05000
0.21250 0.69875 0.05000
0.24375 0.69875 0.05000
0.27500 0.69875 0.05000
0.30625 0.69875 0.05000
0.33750 0.69875 0.05000
0.36875 0.69875 0.05000
0.40000 0.69875 0.05000
0.43125 0.69875 0.05000
0.46250 0.69875 0.05000
0.49375 0.69875 0.05000
0.52500 0.69875 0.05000
0.55625 0.69875 0.05000
0.58750 0.69875 0.05000
0.61875 0.69875 0.05000
0.65000 0.69875 0.05000
0.68125 0.69875 0.05000
0.71250 0.69875 0.05000
0.74375 0.69875 0.05000
0.77500 0.69875 0.05000
0.80625 0.69875 0.05000
0.83750 0.69875 0.05000
0.86875 0.69875 0.05000
0.90000 0.69875 0.05000
0.93125 0.69875 0.05000
0.96250 0.69875 0.05000
0.99375 0.69875 0.05000
0.02500 0.72562 0.05000
0.05625 0.72562 0.05000
0.08750 0.72562 0.05000
0.11875 0.72562 0.05000
0.15000 0.72562 0.05000
0.18125 0.72562 0.05000
0.21250 0.72562 0.05000
0.24375 0.72562 0.05000
0.27500 0.72562 0.05000
0.30625 0.72562 0.05000
0.33750 0.72562 0.05000
0.36875 0.72562 0.05000
0.40000 0.72562 0.05000
0.43125 0.72562 0.05000
0.46250 0.72562 0.05000
0.49375 0.72562 0.05000
0.52500 0.72562 0.05000
0.55625 0.72562 0.05000
0.58750 0.72562 0.05000
0.61875 0.72562 0.05000
0.65000 0.72562 0.05000
0.68125 0.72562 0.05000
0.71250 0.72562 0.05000
0.74375 0.72562 0.05000
0.77500 0.72562 0.05000
0.80625 0.72562 0.05000
0.83750 0.72562 0.05000
0.86875 0.72562 0.05000
0.90000 0.72562 0.05000
0.93125 0.72562 0.05000
0.96250 0.72562 0.05000
0.99375 0.72562 0.05000
0.02500 0.75250 0.05000
0.05625 0.75250 0.05000
0.08750 0.75250 0.05000
0.11875 0.75250 0.05000
